build/web/dist/spark/icons/MapCursorOutline.svg

<svg viewBox="0 0 24 24" xmlns="http://www.w3.org/2000/svg" data-title="MapCursorOutline" fill="currentColor" stroke="none">
  <path fill-rule="evenodd" clip-rule="evenodd" d="M21.9388 3.83463C22.0389 4.26659 22.0158 4.71798 21.8723 5.13748L21.8719 5.13855L16.5909 20.5171C16.5458 20.8894 16.3775 21.2382 16.1098 21.5061C15.7939 21.8222 15.3656 21.9998 14.9189 21.9998C14.4722 21.9998 14.0438 21.8222 13.728 21.5061C13.4628 21.2407 13.2952 20.896 13.2482 20.5276L10.6506 13.3635L3.47628 10.8267C3.10625 10.7806 2.75973 10.6125 2.49329 10.3459C2.17744 10.0298 2 9.60117 2 9.15419C2 8.7072 2.17744 8.27852 2.49329 7.96246C2.76047 7.6951 3.10817 7.52684 3.47935 7.48133L18.8644 2.12753C19.2836 1.9839 19.7347 1.96085 20.1664 2.06097C20.598 2.16109 20.993 2.38039 21.3063 2.69393C21.6196 3.00747 21.8388 3.40267 21.9388 3.83463ZM19.9803 4.48888C20.0025 4.42372 20.006 4.35363 19.9905 4.28655C19.9749 4.21936 19.9408 4.15788 19.8921 4.10911C19.8434 4.06034 19.7819 4.02623 19.7148 4.01065C19.6482 3.9952 19.5786 3.99861 19.5138 4.02048C19.5133 4.02065 19.5128 4.02083 19.5123 4.02101L4.75526 9.15626L11.7626 11.634C12.0447 11.7338 12.2674 11.9548 12.3695 12.2363L14.9119 19.2481L19.9803 4.48888C19.9803 4.48877 19.9802 4.48899 19.9803 4.48888Z"/>
</svg>

<svg viewBox="0 0 24 24" xmlns="http://www.w3.org/2000/svg" data-title="MapCursorOutline" fill="currentColor" stroke="none">
  <path d="m21.94,3.83c.1.43.08.88-.07,1.3h0s-5.28,15.38-5.28,15.38c-.05.37-.21.72-.48.99-.32.32-.74.49-1.19.49s-.88-.18-1.19-.49c-.27-.27-.43-.61-.48-.98l-2.6-7.16-7.17-2.54c-.37-.05-.72-.21-.98-.48-.32-.32-.49-.74-.49-1.19s.18-.88.49-1.19c.27-.27.61-.44.99-.48l15.39-5.35c.42-.14.87-.17,1.3-.07.43.1.83.32,1.14.63.31.31.53.71.63,1.14Zm-1.96.65c.02-.07.03-.14.01-.2-.02-.07-.05-.13-.1-.18s-.11-.08-.18-.1c-.07-.02-.14-.01-.2,0,0,0,0,0,0,0l-14.76,5.14,7.01,2.48c.28.1.5.32.61.6l2.54,7.01,5.07-14.76s0,0,0,0Z"/>
</svg>
